X:3588
T:La Bourbonnaise
T:Gavotte
C:Fran\ccois Couperin
R:Gavotte
Z:Transcribed by Frank Nordberg - http://www.musicaviva.com
F:http://abc.musicaviva.com/tunes/couperin-francois/couperin-bourbonnaise.abc
V:1 Program 1 6 %Harpsichord
V:2 Program 1 6 bass %Harpsichord
M:C
L:1/8
K:G
V:1
B2AG|ADEF GABG|A2D2d2cB|ABABc2AG|B2G2B2AG|
V:2
G,,2G,2|F,2A,2E,2G,2|D,2D,,C,B,,2C,2|D,2C,2D,2D,,2|G,,2G,,,2G,,2G,2|
%
V:1
ADEF GABG|A2D2dcBA|B^cde cdec|[1[F4A4d4]:|[2[F4A4d4]||
V:2
F,2A,2E,2G,2|D,2D,,E,F,2D,2|G,2E,2A,2A,,2|[2[1D,2D,,2:|D,2D=C||
%
V:1
|:d2cB|cBABc2BA|B2G2gfed|edcBc BAG|F2D2d2cB|cBABc2BA|
V:2
|:B,2E2|A,2D2F,2D,2|G,2A,2B,2G,2|C2D2E2C2|D2D,C,B,,2E,2|A,,2D,2F,,2D,,2|
%
V:1
B2G2gfed|edcB[F3A3]G|[1[B,4D4G4]:|[2[B,4D4G4]|]
V:2
G,,2A,,2B,,2G,,2|C,2A,,2D,2D,,2|[1G,,2G,A,:|[2G,,2G,,,2|]
W:
W:
W:  From Musica Viva - http://www.musicaviva.com
W:  the Internet center for free sheet music downloads.
